!!!COM: Haydn, Franz Joseph
!!!OTL: String Quartet in E Major
!!!OPS: Opus 54
!!!ONM: No. 3
!!!OMD: Menuetto: Allegretto
!!!OMV: 3
!!!SCT: H III:59
!!!SCA: Thematisch-bibliographisches Werkevererzeichnis (A. van Hoboken)
!!!YOR: Trautwein Edition
!!!ENC: Frances Bennion
!!!CDT: 1732/3/31/-1809/5/31/
!!!CNT: Oesterreich
!!!YEC: Copyright (c) 1994, 2000 Center for Computer Assisted Research in the Humanities
!!!YEM: Rights to all derivative editions reserved.
!!!YEM: Refer to licensing agreement for further details.
!!!YEN: United States of America
**kern	**kern	**kern	**kern
*k[f#c#g#d#]	*k[f#c#g#d#]	*k[f#c#g#d#]	*k[f#c#g#d#]
*E:	*E:	*E:	*E:
*clefF4	*clefC3	*clefG	*clefG
*M3/4	*M3/4	*M3/4	*M3/4
2r	2r	2r	2r
4r	4r	16d#	16dd#
.	.	8.e	8.ee
=1	=1	=1	=1
2.r	2.r	16g#	16gg#
.	.	8.e	8.ee
.	.	16a	16aa
.	.	8.f#	8.ff#
.	.	16b	16bb
.	.	8.g#	8.gg#
=2	=2	=2	=2
8e	8ee	4e	4ee
8c#	8cc#	.	.
8B	8b	4ee	4eee
8A	8a	.	.
8G#	8g#	4ee	4eee
8F#	8f#	.	.
=3	=3	=3	=3
8E	8e	4.ee	4.eee
8D#	8d#	.	.
8C#	8c#	.	.
8BB	8B	8dd#	8ddd#
8AA	8A	8cc#	8ccc#
8GG#	8G#	8b	8bb
=4	=4	=4	=4
8FF#	8F#	4a	4aa
8GG#	8G#	.	.
8AA	8A	4r	4r
8GG#	8G#	.	.
8FF#	8F#	16e#	16ee#
.	.	8.f#	8.ff#
8EE	8E	.	.
=5	=5	=5	=5
4DD#	4D#	16g#	16gg#
.	.	8.f#	8.ff#
2r	2r	16a	16aa
.	.	8.g#	8.gg#
.	.	16b	16bb
.	.	8.a	8.aa
=6	=6	=6	=6
4r	4r	4cc#	2ccc#
4A	4c#	4e	.
4A	4c#	4e	4a
=7	=7	=7	=7
4r	4r	4cc#	2ccc#
4BB	4f#	4a	.
4BB	4f#	4a	4dd#
=8	=8	=8	=8
4E	4e	4g#	4ee
4EE	4E	2r	4r
4r	4r	.	16A#
.	.	.	8.B
=9	=9	=9	=9
2r	2r	2r	16A#
.	.	.	8.B
.	.	.	16c#
.	.	.	8.B
4D#	4B	4f#	4a
=10	=10	=10	=10
4E	2B	4e	4g#
4G#	.	2r	4e
4r	4r	.	16a#
.	.	.	8.b
=11	=11	=11	=11
2r	2r	2r	16a#
.	.	.	8.b
.	.	.	16cc#
.	.	.	8.b
4d#	4b	4ff#	4aa
=12	=12	=12	=12
4e	2b	4ee	4gg#
4g#	.	2r	4ee
4r	4r	.	16ff##
.	.	.	8.gg#
=13	=13	=13	=13
4c#	4e	4g#	4ccc#
4c#	4e	4g#	4ccc#
4c#	4e	4g#	4ccc#
=14	=14	=14	=14
4c#	2.e	2.g#	16bb#
.	.	.	8.ccc#
4c#	.	.	16ddd#
.	.	.	8.ccc#
4c#	.	.	16eee
.	.	.	8.ccc#
=15	=15	=15	=15
4B#	4d#	4g#	4.ggg#
4B#	4d#	4g#	.
.	.	.	8fff#
4B#	4d#	4g#	8eee
.	.	.	8ddd#
=16	=16	=16	=16
4c#	2.e	2.g#	4ccc#
4c#	.	.	16bb#
.	.	.	8.ccc#
4c#	.	.	16ddd#
.	.	.	8.ccc#
=17	=17	=17	=17
4A#	4c#	4f#	4.fff#
4A#	4c#	4f#	.
.	.	.	8eee
4A#	4c#	4f#	8ddd#
.	.	.	8ccc#
=18	=18	=18	=18
4B	2.d#	2.f#	4bb
4B	.	.	16aa#
.	.	.	8.bb
4B	.	.	16ccc#
.	.	.	8.bb
=19	=19	=19	=19
4A#	4c#	4f#	4.fff#
4A#	4c#	4f#	.
.	.	.	8eee
4A#	4c#	4f#	8ddd#
.	.	.	8ccc#
=20	=20	=20	=20
4B	4d#	4f#	4bb
4r	4r	4r	16aa#
.	.	.	8.bb
4D#	[4b	4f#	16ddd#
.	.	.	8.bb
=21	=21	=21	=21
4E	4b]	4g#	4r
4r	4r	4r	16ff##
.	.	.	8.gg#
4E	[4B	4e	16bb
.	.	.	8.gg#
=22	=22	=22	=22
4F#	4B]	4d#	4r
4r	4r	4r	16ff#
.	.	.	8.dd#
4F#	[4f#	4a#	16cc#
.	.	.	8.a#
=23	=23	=23	=23
4D#	4f#]	4b	4r
4r	4r	4r	16aa#
.	.	.	8.bb
4D#	[4b	4f#	16ddd#
.	.	.	8.bb
=24	=24	=24	=24
4E	4b]	4g#	4r
4r	4r	4r	16ff##
.	.	.	8.gg#
4E	[4B	4e	16bb
.	.	.	8.gg#
=25	=25	=25	=25
4F#	4B]	4d#	4r
4r	4r	4r	16ff#
.	.	.	8.dd#
4F#	4f#	4a#	16cc#
.	.	.	8.a#
=26	=26	=26	=26
4BB	4d#	4b	4b
4B	4r	4r	4r
16AA#	16A#	16A#	16A#
8.BB	8.B	8.B	8.B
=27	=27	=27	=27
16D#	16d#	16d#	16d#
8.BB	8.B	8.B	8.B
16E	16e	16e	16e
8.C#	8.c#	8.c#	8.c#
16F#	16f#	16f#	16f#
8.D#	8.d#	8.d#	8.d#
=28	=28	=28	=28
4BB	4B	4B	4B
4B	4b	4b	4r
4r	4r	4r	16a#
.	.	.	8.b
=29	=29	=29	=29
2.r	2.r	2.r	16dd#
.	.	.	8.b
.	.	.	16ee
.	.	.	8.cc#
.	.	.	16ff#
.	.	.	8.dd#
=30	=30	=30	=30
2.r	2.r	2r	16gg#
.	.	.	8.ee
.	.	.	16aa
.	.	.	8.ff#
.	.	16d#	16dd#
.	.	8.e	8.ee
=31	=31	=31	=31
2.r	2.r	16g#	16gg#
.	.	8.e	8.ee
.	.	16a	16aa
.	.	8.f#	8.ff#
.	.	16b	16bb
.	.	8.g#	8.gg#
=32	=32	=32	=32
8e	8ee	4e	4ee
8c#	8cc#	.	.
8B	8b	4ee	4eee
8A	8a	.	.
8G#	8g#	4ee	4eee
8F#	8f#	.	.
=33	=33	=33	=33
8E	8e	4.ee	4.eee
8D#	8d#	.	.
8C#	8c#	.	.
8BB	8B	8dd#	8ddd#
8AA	8A	8cc#	8ccc#
8GG#	8G#	8b	8bb
=34	=34	=34	=34
8FF#	8F#	4a	4aa
8GG#	8G#	.	.
8AA	8A	4r	4r
8GG#	8G#	.	.
8FF#	8F#	16e#	16ee#
.	.	8.f#	8.ff#
8EE	8E	.	.
=35	=35	=35	=35
4DD#	4D#	16g#	16gg#
.	.	8.f#	8.ff#
2r	2r	16a	16aa
.	.	8.g#	8.gg#
.	.	16b	16bb
.	.	8.a	8.aa
=36	=36	=36	=36
4r	4r	4cc#	2ccc#
4A	4c#	4e	.
4A	4c#	4e	4a
=37	=37	=37	=37
4r	4r	4d#	2aaa
4BB	4f#	4a	.
4BB	4f#	4a	4ddd#
=38	=38	=38	=38
4E	4e	4g#	4eee
4r	4r	4r	4r
4B	4b	4b	4b
=39	=39	=39	=39
4e	4ee	4ee	4ee
4e	4ee	4ee	4ee
4e	4ee	4ee	4ee
=40	=40	=40	=40
4d#	4dd#	4dd#	4dd#
8f#	8ff#	8ff#	8ff#
8d#	8dd#	8dd#	8dd#
4A	4a	4a	4a
=41	=41	=41	=41
4G#	4g#	4g#	4g#
8B	8b	8b	8b
8G#	8g#	8g#	8g#
4E	4e	4e	4e
=42	=42	=42	=42
2BB	2B	2B	2B
4BB#	4B#	4B#	4B#
=43	=43	=43	=43
4C#	4c#	4c#	4c#
4C#	4G#	4e	4gg#
4C#	4G#	4e	4gg#
=44	=44	=44	=44
2.BB#	2.G#	2d#	8ff##
.	.	.	8gg#
.	.	.	8aa
.	.	.	8gg#
.	.	4g#	8ff#
.	.	.	8dd#
=45	=45	=45	=45
4C#	4c#	4g#	8ee
.	.	.	8gg#
4F#	4f#	8f#	8dd#
.	.	8d#	8b
4F#	4F#	8e	8cc#
.	.	8c#	8a#
=46	=46	=46	=46
4BB	4B	4B	4b
4B	2r	2r	4r
4r	.	.	4b
=47	=47	=47	=47
4r	4r	4r	8ff#
.	.	.	8aa
4BB	8d#	4a	8ff#
.	8f#	.	8dd#
4E	4e	4g#	8ee
.	.	.	8gg#
=48	=48	=48	=48
4r	4r	4r	8dd#
.	.	.	8ff#
4G#	8B#	4f#	8dd#
.	8d#	.	8b#
4c#	4c#	4e	8cc#
.	.	.	8ee
=49	=49	=49	=49
4r	4r	4r	8b
.	.	.	8dd
4E	8G#	4d	8b
.	8B	.	8g#
4A	4A	4c#	8a
.	.	.	8cc#
=50	=50	=50	=50
2.G#	2.B	[2.e	8cc#
.	.	.	8b
.	.	.	8ee
.	.	.	8dd#
.	.	.	8ff#
.	.	.	8ee
=51	=51	=51	=51
2.A	2.c#	4e]	8dd#
.	.	.	8cc#
.	.	4c#	8b
.	.	.	8a
.	.	4c#	8g#
.	.	.	8f#
=52	=52	=52	=52
4B	4G#	4B	4e
4BB	4F#	4r	4d#
4r	4r	4b	4b
=53	=53	=53	=53
2r	2r	4ff#	4aa
.	.	4ff#	4aa
4B	4d#	4ff#	4aa
=54	=54	=54	=54
4e	4g#	4ee	4gg#
4e	4g#	4r	8bb
.	.	.	8gg#
4e	4g#	4ee	4ee
=55	=55	=55	=55
4c#	4a	4e	4aa
8e	4r	4e	4ccc#
8c#	.	.	.
4A	4a	4e	4ccc#
=56	=56	=56	=56
4G#	4g#	4e	2bb
8B	4g#	4r	.
8G#	.	.	.
4E	4g#	4e	4bb
=57	=57	=57	=57
2.C#	2.c#	2.e	4aa#
.	.	.	8eee
.	.	.	8ccc#
.	.	.	4aa#
=58	=58	=58	=58
2D#	2.B	2f#	4aa
.	.	.	8ccc#
.	.	.	8aa
4E	.	4g#	4gg#
=59	=59	=59	=59
2AA	2A	4cc#	4ff#
.	.	4r	8aa
.	.	.	8ff#
4BB	4F#	4a	8dd#
.	.	.	8b
=60	=60	=60	=60
4E	4E	4g#	4ee
4EE	2r	2r	2r
4r	.	.	.
==	==	==	==
*-	*-	*-	*-
!!!RWG1: This file contains only pitch and duration data.
!!!RWG2: Transposing instruments are not transposed.
!!!RWG3: Spines may have incompatible meters.
!!!RWG4: Durations of rests and tied notes may be interpreted.
!!!RWG: Key is interpreted using the Humdrum key tool.
!!!GTL: 6 Quators ("Tost I + II")
!!!AFT: stage1
!!!END: 1997/04/15
!!!KEY: 817669141
!!!EMD: Converted from MuseData to Humdrum Dec 16, 2000, by Andreas Kornstaedt using muse2kern.
!!!EMD: Manual editing by Craig Sapp, Nov 2001
